X:1
T:An Droichead
S:Liam O'Flynn - The Piper's Call - Track 03
Z:MTGuru for C&F, 2012-05-06
N:Last time, D.C. to 2nd ending
M:4/4
Z: Contributed 2016-05-24 17:04:03 by David davidpeterobrien@yahoo.com
K:G
B<d-d2 A3G/F/|G3F G4|e<g-g2 d3e|c3B c2BG|
A2d2 d2d/e/f|g2G2 e3d|c3A d2BA|1 G2-G/A/B/G/ A4:|2 [M:6/4]G3F G4-:G4|]
A2d2 d2ed|c2BG A3G|A2d2 d2d/e/f|g3f g4|
A2d2 d2f/g/a|b2af g2Bd|c2BG A2Bd|[M:6/4]c2BG A4-:A4|]
